packages/ui/assets/svg/metis.svg

<svg class="icon-size" width="35" height="34" viewBox="0 0 35 34" fill="none" xmlns="http://www.w3.org/2000/svg">
<path fill-rule="evenodd" clip-rule="evenodd" d="M22.7367 33.9752C29.8435 31.7642 35 25.172 35 17.3835C35 7.78284 27.165 0 17.5 0C7.83502 0 0 7.78284 0 17.3835C0 24.7385 4.59837 31.0266 11.0951 33.5658C11.8698 31.7314 14.4259 25.6374 14.4259 25.0952C14.4259 24.83 15.2269 24.6687 16.1367 24.4856C17.4191 24.2274 18.9178 23.9258 18.6952 23.2279C18.4349 22.4115 16.6103 23.2515 15.4303 23.7946C14.8862 24.0452 14.4793 24.2325 14.4259 24.1652C14.2568 23.9522 15.1751 22.0702 15.5133 21.6441C15.6409 21.4833 16.2778 21.4753 17.0343 21.4658C18.282 21.4501 19.8551 21.4303 20.0056 20.7142C20.1609 19.9757 18.323 20.3959 16.9868 20.7014C16.2412 20.8719 15.6518 21.0066 15.6518 20.8846C15.6518 20.5438 16.9505 18.7043 17.5 18.406C17.6765 18.3102 18.2597 18.2335 18.9645 18.1408C20.4543 17.9449 22.4876 17.6776 22.3728 17.0074C22.2675 16.3928 20.6392 16.9231 19.4246 17.3184C18.6879 17.5583 18.1035 17.7486 18.1035 17.6039C18.1035 17.2204 19.8671 15.5514 20.3744 15.4236C20.5064 15.3903 20.865 15.3893 21.3242 15.3879C22.6306 15.3842 24.751 15.378 24.7822 14.6214C24.8106 13.9333 23.0343 14.303 21.8308 14.5535C21.2459 14.6753 20.7963 14.769 20.7548 14.6992C20.7153 14.633 21.2763 14.3492 22.0507 13.9575C23.7637 13.0909 26.5214 11.6959 26.1349 10.9572C25.7532 10.2279 23.2659 12.1421 21.6467 13.3882C20.8849 13.9745 20.3152 14.4129 20.2476 14.3584C20.1797 14.3037 20.4444 13.9465 20.8071 13.457C21.5735 12.4226 22.7776 10.7977 22.2037 10.1904C21.3583 9.29563 19.4444 15.0401 19.4444 15.0401C19.4444 15.0401 18.0612 17.0074 17.8076 17.0074C17.7179 17.0074 17.7975 16.5005 17.9004 15.8454C18.0883 14.6495 18.3538 12.9597 17.8076 12.9597C17.1875 12.9597 17.1296 15.2253 17.0929 16.6681C17.0794 17.1923 17.0688 17.608 17.035 17.7669C16.9082 18.3634 15.7246 20.1602 15.5133 20.2028C15.4483 20.2159 15.4604 19.8742 15.4775 19.3897C15.5161 18.2994 15.5803 16.4863 14.8486 16.3683C14.0245 16.2354 14.5116 19.363 14.7458 20.8677C14.8119 21.2924 14.8579 21.5879 14.8486 21.6441C14.8064 21.8998 14.4565 22.8371 14.2874 22.8371C14.2387 22.8371 14.1105 22.6011 13.9333 22.2753C13.495 21.4691 12.7575 20.1125 12.1856 20.4159C11.5634 20.746 12.6342 21.869 13.384 22.6553C13.602 22.8839 13.7928 23.084 13.907 23.2279C14.4143 23.867 13.2846 26.9868 12.9887 27.0199C12.6928 27.053 10.8752 25.9973 10.8752 25.9973C10.8752 25.9973 9.8607 25.5286 9.43799 25.1878C9.17803 24.9782 8.95002 24.2205 8.75397 23.5692C8.6313 23.1615 8.52115 22.7954 8.42352 22.6314C8.3163 22.4513 8.10329 22.4082 7.88354 22.3638C7.5835 22.3031 7.27087 22.24 7.19767 21.8219C7.13777 21.4797 7.18164 21.1565 7.22231 20.8569C7.26773 20.5223 7.30917 20.217 7.19767 19.9473C7.11827 19.7551 6.7823 19.6292 6.39376 19.4835C5.74812 19.2415 4.95734 18.9452 4.95734 18.2004L4.6193 16.9222C4.6193 16.9222 4.36555 15.7717 4.95734 15.6439C5.25522 15.5796 5.15679 15.2562 5.03409 14.853C4.91303 14.4552 4.76834 13.9797 4.95734 13.5988C5.3379 12.8319 7.36688 10.1904 8.42352 10.0199C9.16459 9.90039 9.23078 9.71795 9.2985 9.5315C9.32733 9.45209 9.35641 9.3719 9.43799 9.29563C9.44594 9.28814 9.45761 9.27714 9.47291 9.26283C9.98227 8.78385 14.4614 4.57245 15.6518 4.7793C15.7092 4.78927 15.7703 4.79995 15.8347 4.81121C17.1478 5.0407 19.8674 5.516 21.3583 5.29058C22.9225 5.05409 24.9938 5.54621 25.8814 6.48355C26.534 7.17276 26.8211 8.06929 27.0281 8.71584C27.1027 8.94856 27.1668 9.14898 27.2339 9.29563C27.323 9.49026 27.5427 9.72178 27.7939 9.98646C28.2573 10.4748 28.8277 11.076 28.8824 11.7667C28.925 12.3028 28.8147 12.8261 28.7216 13.2681C28.6297 13.7045 28.5545 14.0615 28.6594 14.2732C28.7465 14.4489 29.2433 14.8491 29.8 15.2976C30.5936 15.937 31.509 16.6745 31.5338 17C31.5576 17.3115 31.1037 17.5422 30.7019 17.7464C30.3893 17.9052 30.1083 18.048 30.1083 18.2004C30.1083 18.3958 30.2281 18.7341 30.3332 19.0311C30.4155 19.2633 30.4887 19.4702 30.4887 19.5638C30.4887 19.6612 30.4356 19.714 30.366 19.7835C30.2832 19.8659 30.177 19.9716 30.1083 20.2028C30.0364 20.4446 30.1686 20.5355 30.2964 20.6233C30.3939 20.6903 30.4887 20.7555 30.4887 20.8846C30.4887 21.1435 30.3614 21.3703 30.1894 21.6766C30.1633 21.723 30.1362 21.7713 30.1083 21.8219C30.0289 21.966 29.9972 22.2963 29.9618 22.6662C29.9028 23.2812 29.8334 24.0056 29.5167 24.1652C29.3179 24.2653 28.6719 24.3001 27.9086 24.3412C26.723 24.405 25.2544 24.4841 24.7401 24.8469C23.8947 25.4434 21.3466 31.0602 21.5157 31.9123C21.5901 32.287 21.8457 32.5711 22.1046 32.8589C22.3953 33.182 22.6901 33.5096 22.7367 33.9752Z" fill="#00DACC"/>
</svg>

<svg class="icon-size" width="35" height="34" viewBox="0 0 35 34" fill="none" xmlns="http://www.w3.org/2000/svg"><path fill-rule="evenodd" clip-rule="evenodd" d="M22.737 33.975C29.844 31.765 35 25.172 35 17.384 35 7.783 27.165 0 17.5 0S0 7.783 0 17.384c0 7.354 4.598 13.643 11.095 16.182.775-1.835 3.33-7.929 3.33-8.47 0-.266.802-.427 1.712-.61 1.282-.259 2.78-.56 2.558-1.258-.26-.817-2.085.023-3.265.567-.544.25-.95.438-1.004.37-.17-.213.75-2.095 1.087-2.52.128-.162.765-.17 1.521-.18 1.248-.015 2.821-.035 2.972-.75.155-.74-1.683-.32-3.02-.014-.745.17-1.334.306-1.334.184 0-.341 1.299-2.18 1.848-2.479.177-.096.76-.172 1.465-.265 1.49-.196 3.523-.463 3.408-1.134-.106-.614-1.734-.084-2.948.311-.737.24-1.322.43-1.322.286 0-.384 1.764-2.053 2.271-2.18.132-.034.491-.035.95-.036 1.307-.004 3.427-.01 3.458-.767.029-.688-1.748-.318-2.951-.068-.585.122-1.035.216-1.076.146-.04-.066.521-.35 1.296-.742 1.713-.866 4.47-2.261 4.084-3-.382-.73-2.87 1.185-4.488 2.431-.762.587-1.332 1.025-1.4.97-.067-.054.197-.412.56-.901.767-1.034 1.97-2.66 1.397-3.267-.846-.894-2.76 4.85-2.76 4.85s-1.383 1.967-1.636 1.967c-.09 0-.01-.507.092-1.162.188-1.196.454-2.885-.092-2.885-.62 0-.678 2.265-.715 3.708-.014.524-.024.94-.058 1.099-.127.596-1.31 2.393-1.522 2.436-.065.013-.053-.329-.036-.813.04-1.09.103-2.904-.628-3.022-.825-.133-.337 2.995-.103 4.5.066.424.112.72.103.776-.043.256-.393 1.193-.562 1.193-.048 0-.177-.236-.354-.562-.438-.806-1.175-2.162-1.747-1.86-.623.331.448 1.454 1.198 2.24.218.229.409.429.523.573.507.639-.622 3.759-.918 3.792-.296.033-2.114-1.023-2.114-1.023s-1.014-.468-1.437-.81c-.26-.209-.488-.966-.684-1.618-.123-.407-.233-.774-.33-.938-.108-.18-.32-.223-.54-.267-.3-.06-.613-.124-.686-.542-.06-.342-.016-.665.024-.965.046-.335.087-.64-.024-.91-.08-.192-.416-.318-.804-.463-.646-.243-1.437-.539-1.437-1.284l-.338-1.278s-.253-1.15.338-1.278c.298-.064.2-.388.077-.791-.121-.398-.266-.873-.077-1.254.38-.767 2.41-3.409 3.467-3.58.74-.119.807-.301.875-.488.028-.079.057-.16.139-.235l.035-.033c.51-.48 4.988-4.69 6.179-4.484l.183.032c1.313.23 4.032.705 5.523.48 1.564-.237 3.636.255 4.523 1.193.653.689.94 1.585 1.147 2.232.075.233.139.433.206.58.089.194.309.426.56.69.463.489 1.034 1.09 1.088 1.78.043.537-.067 1.06-.16 1.502-.092.436-.168.793-.063 1.005.088.176.584.576 1.141 1.025.794.639 1.709 1.376 1.734 1.702.024.311-.43.542-.832.746-.313.16-.594.302-.594.454 0 .196.12.534.225.831.083.232.156.44.156.533 0 .097-.053.15-.123.22a.886.886 0 0 0-.258.419c-.072.242.06.332.188.42.098.067.193.133.193.262 0 .258-.128.485-.3.792l-.08.145c-.08.144-.112.474-.147.844-.06.615-.129 1.34-.445 1.5-.2.1-.845.134-1.608.175-1.186.064-2.655.143-3.169.506-.845.596-3.393 6.213-3.224 7.065.074.375.33.66.589.947.29.323.585.65.632 1.116Z" fill="#00DACC"/></svg>
